X: 24870
T: Magic Foot
R: barndance
M: 4/4
K: Gmajor
G2Bd dGBd|dGBd cAFA|GGBd dGBd|1 cAFA GABA:|2 cAFA G2 (3d_dc|
|:BGdG BdBG|EGcG FAdc|BGdG BdBG|1 EGdc BG (3AAG:|2 EGBG g2gb|
fddd Ad (3ddd|fddf ggga|fd (3ddd AddB|cAFA Gdeg|
fddd Adde|fddf (3ggg ga|fddd Addd|(3ddd (3_ddd (3ccc (3AAA|
|:G2Bd dGBG|FGFD AAFA|GABG dGBd|1 cAFA GABA:|2 cAFA gz z2||

